static/img/kroki/90379562cbba51b85aeac7749d997198.svg

<?xml version="1.0" encoding="us-ascii" standalone="no"?><svg xmlns="http://www.w3.org/2000/svg" xmlns:xlink="http://www.w3.org/1999/xlink" contentStyleType="text/css" height="793px" preserveAspectRatio="none" style="width:461px;height:793px;" version="1.1" viewBox="0 0 461 793" width="461px" zoomAndPan="magnify"><defs/><g><!--class azure_machine_learning_quota--><g id="elem_azure_machine_learning_quota"><rect codeLine="23" fill="#3D176E" height="126.6797" id="azure_machine_learning_quota" rx="2.5" ry="2.5" style="stroke:#000D19;stroke-width:0.5;" width="304" x="82" y="660.14"/><ellipse cx="97" cy="680.0345" fill="#ADD1B2" rx="11" ry="11" style="stroke:#181818;stroke-width:1.0;"/><path d="M99.9688,685.6752 Q99.3906,685.972 98.75,686.1127 Q98.1094,686.2689 97.4063,686.2689 Q94.9063,686.2689 93.5781,684.6283 Q92.2656,682.972 92.2656,679.847 Q92.2656,676.722 93.5781,675.0658 Q94.9063,673.4095 97.4063,673.4095 Q98.1094,673.4095 98.75,673.5658 Q99.4063,673.722 99.9688,674.0189 L99.9688,676.7377 Q99.3438,676.1595 98.75,675.8939 Q98.1563,675.6127 97.5313,675.6127 Q96.1875,675.6127 95.5,676.6908 Q94.8125,677.7533 94.8125,679.847 Q94.8125,681.9408 95.5,683.0189 Q96.1875,684.0814 97.5313,684.0814 Q98.1563,684.0814 98.75,683.8158 Q99.3438,683.5345 99.9688,682.9564 L99.9688,685.6752 Z " fill="#000000"/><text fill="#D9B8FF" font-family="Helvetica" font-size="17" lengthAdjust="spacing" textLength="262" x="116" y="685.9198">azure_machine_learning_quota</text><line style="stroke:#000D19;stroke-width:0.5;" x1="83" x2="385" y1="699.9291" y2="699.9291"/><text fill="#D9B8FF" font-family="sans-serif" font-size="14" font-weight="bold" lengthAdjust="spacing" textLength="190" x="93" y="721.9242">aml_workspace_location</text><text fill="#D9B8FF" font-family="sans-serif" font-size="14" lengthAdjust="spacing" textLength="48" x="283" y="721.9242">: string</text><text fill="#D9B8FF" font-family="sans-serif" font-size="14" font-weight="bold" lengthAdjust="spacing" textLength="32" x="93" y="748.2211">limit</text><text fill="#D9B8FF" font-family="sans-serif" font-size="14" lengthAdjust="spacing" textLength="44" x="125" y="748.2211">: int64</text><text fill="#D9B8FF" font-family="sans-serif" font-size="14" font-weight="bold" lengthAdjust="spacing" textLength="30" x="93" y="774.5179">unit</text><text fill="#D9B8FF" font-family="sans-serif" font-size="14" lengthAdjust="spacing" textLength="48" x="123" y="774.5179">: string</text></g><!--class microsoft_resource--><g id="elem_microsoft_resource"><rect codeLine="28" fill="#3D176E" height="100.3828" id="microsoft_resource" rx="2.5" ry="2.5" style="stroke:#000D19;stroke-width:0.5;" width="214" x="7" y="438.76"/><ellipse cx="28.3" cy="458.6545" fill="#ADD1B2" rx="11" ry="11" style="stroke:#181818;stroke-width:1.0;"/><path d="M31.2688,464.2952 Q30.6906,464.592 30.05,464.7327 Q29.4094,464.8889 28.7063,464.8889 Q26.2063,464.8889 24.8781,463.2483 Q23.5656,461.592 23.5656,458.467 Q23.5656,455.342 24.8781,453.6858 Q26.2063,452.0295 28.7063,452.0295 Q29.4094,452.0295 30.05,452.1858 Q30.7063,452.342 31.2688,452.6389 L31.2688,455.3577 Q30.6438,454.7795 30.05,454.5139 Q29.4563,454.2327 28.8313,454.2327 Q27.4875,454.2327 26.8,455.3108 Q26.1125,456.3733 26.1125,458.467 Q26.1125,460.5608 26.8,461.6389 Q27.4875,462.7014 28.8313,462.7014 Q29.4563,462.7014 30.05,462.4358 Q30.6438,462.1545 31.2688,461.5764 L31.2688,464.2952 Z " fill="#000000"/><text fill="#D9B8FF" font-family="Helvetica" font-size="17" lengthAdjust="spacing" textLength="158" x="48.7" y="464.5398">microsoft_resource</text><line style="stroke:#000D19;stroke-width:0.5;" x1="8" x2="220" y1="478.5491" y2="478.5491"/><text fill="#D9B8FF" font-family="sans-serif" font-size="14" font-weight="bold" lengthAdjust="spacing" textLength="35" x="18" y="500.5442">etag</text><text fill="#D9B8FF" font-family="sans-serif" font-size="14" lengthAdjust="spacing" textLength="48" x="53" y="500.5442">: string</text><text fill="#D9B8FF" font-family="sans-serif" font-size="14" font-weight="bold" lengthAdjust="spacing" textLength="144" x="18" y="526.8411">provisioning_state</text><text fill="#D9B8FF" font-family="sans-serif" font-size="14" lengthAdjust="spacing" textLength="48" x="162" y="526.8411">: string</text></g><!--class phantom_resource--><g id="elem_phantom_resource"><rect codeLine="32" fill="#3D176E" height="39.7891" id="phantom_resource" rx="2.5" ry="2.5" style="stroke:#000D19;stroke-width:0.5;" width="198" x="256" y="469.05"/><ellipse cx="271" cy="488.9445" fill="#ADD1B2" rx="11" ry="11" style="stroke:#181818;stroke-width:1.0;"/><path d="M273.9688,494.5852 Q273.3906,494.882 272.75,495.0227 Q272.1094,495.1789 271.4063,495.1789 Q268.9063,495.1789 267.5781,493.5383 Q266.2656,491.882 266.2656,488.757 Q266.2656,485.632 267.5781,483.9758 Q268.9063,482.3195 271.4063,482.3195 Q272.1094,482.3195 272.75,482.4758 Q273.4063,482.632 273.9688,482.9289 L273.9688,485.6477 Q273.3438,485.0695 272.75,484.8039 Q272.1563,484.5227 271.5313,484.5227 Q270.1875,484.5227 269.5,485.6008 Q268.8125,486.6633 268.8125,488.757 Q268.8125,490.8508 269.5,491.9289 Q270.1875,492.9914 271.5313,492.9914 Q272.1563,492.9914 272.75,492.7258 Q273.3438,492.4445 273.9688,491.8664 L273.9688,494.5852 Z " fill="#000000"/><text fill="#D9B8FF" font-family="Helvetica" font-size="17" lengthAdjust="spacing" textLength="156" x="290" y="494.8298">phantom_resource</text></g><!--class resource--><g id="elem_resource"><rect codeLine="35" fill="#3D176E" height="310.7578" id="resource" rx="2.5" ry="2.5" style="stroke:#000D19;stroke-width:0.5;" width="227" x="120.5" y="7"/><ellipse cx="189.25" cy="26.8945" fill="#ADD1B2" rx="11" ry="11" style="stroke:#181818;stroke-width:1.0;"/><path d="M192.2188,32.5352 Q191.6406,32.832 191,32.9727 Q190.3594,33.1289 189.6563,33.1289 Q187.1563,33.1289 185.8281,31.4883 Q184.5156,29.832 184.5156,26.707 Q184.5156,23.582 185.8281,21.9258 Q187.1563,20.2695 189.6563,20.2695 Q190.3594,20.2695 191,20.4258 Q191.6563,20.582 192.2188,20.8789 L192.2188,23.5977 Q191.5938,23.0195 191,22.7539 Q190.4063,22.4727 189.7813,22.4727 Q188.4375,22.4727 187.75,23.5508 Q187.0625,24.6133 187.0625,26.707 Q187.0625,28.8008 187.75,29.8789 Q188.4375,30.9414 189.7813,30.9414 Q190.4063,30.9414 191,30.6758 Q191.5938,30.3945 192.2188,29.8164 L192.2188,32.5352 Z " fill="#000000"/><text fill="#D9B8FF" font-family="Helvetica" font-size="17" lengthAdjust="spacing" textLength="71" x="214.75" y="32.7798">resource</text><line style="stroke:#000D19;stroke-width:0.5;" x1="121.5" x2="346.5" y1="46.7891" y2="46.7891"/><text fill="#D9B8FF" font-family="sans-serif" font-size="14" font-weight="bold" lengthAdjust="spacing" textLength="29" x="131.5" y="68.7842">age</text><text fill="#D9B8FF" font-family="sans-serif" font-size="14" lengthAdjust="spacing" textLength="66" x="160.5" y="68.7842">: duration</text><text fill="#D9B8FF" font-family="sans-serif" font-size="14" font-weight="bold" lengthAdjust="spacing" textLength="43" x="131.5" y="95.0811">atime</text><text fill="#D9B8FF" font-family="sans-serif" font-size="14" lengthAdjust="spacing" textLength="70" x="174.5" y="95.0811">: datetime</text><text fill="#D9B8FF" font-family="sans-serif" font-size="14" font-weight="bold" lengthAdjust="spacing" textLength="43" x="131.5" y="121.3779">ctime</text><text fill="#D9B8FF" font-family="sans-serif" font-size="14" lengthAdjust="spacing" textLength="70" x="174.5" y="121.3779">: datetime</text><text fill="#D9B8FF" font-family="sans-serif" font-size="14" font-weight="bold" lengthAdjust="spacing" textLength="14" x="131.5" y="147.6748">id</text><text fill="#D9B8FF" font-family="sans-serif" font-size="14" lengthAdjust="spacing" textLength="48" x="145.5" y="147.6748">: string</text><text fill="#D9B8FF" font-family="sans-serif" font-size="14" font-weight="bold" lengthAdjust="spacing" textLength="33" x="131.5" y="173.9717">kind</text><text fill="#D9B8FF" font-family="sans-serif" font-size="14" lengthAdjust="spacing" textLength="48" x="164.5" y="173.9717">: string</text><text fill="#D9B8FF" font-family="sans-serif" font-size="14" font-weight="bold" lengthAdjust="spacing" textLength="90" x="131.5" y="200.2686">last_access</text><text fill="#D9B8FF" font-family="sans-serif" font-size="14" lengthAdjust="spacing" textLength="66" x="221.5" y="200.2686">: duration</text><text fill="#D9B8FF" font-family="sans-serif" font-size="14" font-weight="bold" lengthAdjust="spacing" textLength="90" x="131.5" y="226.5654">last_update</text><text fill="#D9B8FF" font-family="sans-serif" font-size="14" lengthAdjust="spacing" textLength="66" x="221.5" y="226.5654">: duration</text><text fill="#D9B8FF" font-family="sans-serif" font-size="14" font-weight="bold" lengthAdjust="spacing" textLength="48" x="131.5" y="252.8623">mtime</text><text fill="#D9B8FF" font-family="sans-serif" font-size="14" lengthAdjust="spacing" textLength="70" x="179.5" y="252.8623">: datetime</text><text fill="#D9B8FF" font-family="sans-serif" font-size="14" font-weight="bold" lengthAdjust="spacing" textLength="43" x="131.5" y="279.1592">name</text><text fill="#D9B8FF" font-family="sans-serif" font-size="14" lengthAdjust="spacing" textLength="48" x="174.5" y="279.1592">: string</text><text fill="#D9B8FF" font-family="sans-serif" font-size="14" font-weight="bold" lengthAdjust="spacing" textLength="34" x="131.5" y="305.4561">tags</text><text fill="#D9B8FF" font-family="sans-serif" font-size="14" lengthAdjust="spacing" textLength="171" x="165.5" y="305.4561">: dictionary[string, string]</text></g><!--reverse link microsoft_resource to azure_machine_learning_quota--><g id="link_microsoft_resource_azure_machine_learning_quota"><path codeLine="47" d="M147.8535,555.5463 C165.9535,590.6263 182.11,621.94 201.58,659.66 " fill="none" id="microsoft_resource-backto-azure_machine_learning_quota" style="stroke:#FFAF37;stroke-width:2.0;"/><polygon fill="none" points="139.6,539.55,142.5214,558.2974,153.1856,552.7951,139.6,539.55" style="stroke:#FFAF37;stroke-width:2.0;"/></g><!--reverse link phantom_resource to azure_machine_learning_quota--><g id="link_phantom_resource_azure_machine_learning_quota"><path codeLine="48" d="M336.7921,524.9481 C319.8621,557.4881 292.93,609.23 266.66,659.72 " fill="none" id="phantom_resource-backto-azure_machine_learning_quota" style="stroke:#FFAF37;stroke-width:2.0;"/><polygon fill="none" points="345.1,508.98,331.4694,522.1788,342.1148,527.7174,345.1,508.98" style="stroke:#FFAF37;stroke-width:2.0;"/></g><!--reverse link resource to microsoft_resource--><g id="link_resource_microsoft_resource"><path codeLine="49" d="M170.5667,334.9426 C154.4467,378.5326 144.31,405.98 132.31,438.42 " fill="none" id="resource-backto-microsoft_resource" style="stroke:#FFAF37;stroke-width:2.0;"/><polygon fill="none" points="176.81,318.06,164.9391,332.8614,176.1942,337.0237,176.81,318.06" style="stroke:#FFAF37;stroke-width:2.0;"/></g><!--reverse link resource to phantom_resource--><g id="link_resource_phantom_resource"><path codeLine="50" d="M297.948,334.926 C320.228,394.686 336.73,438.95 347.92,468.96 " fill="none" id="resource-backto-phantom_resource" style="stroke:#FFAF37;stroke-width:2.0;"/><polygon fill="none" points="291.66,318.06,292.3261,337.022,303.57,332.8299,291.66,318.06" style="stroke:#FFAF37;stroke-width:2.0;"/></g><!--SRC=[ZPDBRzim48Jl-XK4SZDYm4xIE2vwIGmKpIKecjwAGbYJAukmI2hBLGodxNylzMX0FUBqPir-d1ckv5mh56XAFWg3Pela4x_NjWG28sw9t67Z2aVYBCiWkrmDXv-TvNU11p0elc3nZAmb38dlkPPxYzwBYsXq1tA_8rTPrTepWVLXX9OZQbE0zxVCfBSLOrH6hRStMJOaXwPdbsgvkiOHvaWXTSXYiL3BzH1vD-halL-9H_s2OXalxS4nZcgE8XhgPCkQY4gEBlfl_cR7hw2KjZln8TA-jPt88lNqnnoKEzHq1eMFOpmZeUDZYPlHhN1zexBL97p_5fp8UdK2NYh2r83CjSMqG20RqjEdoZ68Nybi1gP83uxsuPEH0N0IM3ixctqC8HJGW1JQQAuLRVdwAWYLRPyxua-NPRGavrt6AQ5t5Kbi4f1Xr_ChoJrh7rBg9fw1SSAipC6oCx7Lwwnd3xlckAgeQLuhh4sh1UlwTz3aXAPLhrRORby8MPo2bE4VDqXe9bMfkkhHn4paM33OCmuBQHsrh8y17N-qi_EE-HckEh7DJx_dy_d9LvgCrlOVPmRiE7X834EIlm00]--></g></svg>

<svg xmlns="http://www.w3.org/2000/svg" width="461" height="793" viewBox="0 0 461 793"><rect width="304" height="126.68" x="82" y="660.14" fill="#3D176E" rx="2.5" ry="2.5" style="stroke:#000d19;stroke-width:.5"/><circle cx="97" cy="680.034" r="11" fill="#ADD1B2" style="stroke:#181818;stroke-width:1"/><path d="M99.969 685.675q-.578.297-1.219.438-.64.156-1.344.156-2.5 0-3.828-1.64-1.312-1.657-1.312-4.782t1.312-4.781q1.328-1.657 3.828-1.657.703 0 1.344.157.656.156 1.219.453v2.719q-.625-.579-1.219-.844-.594-.281-1.219-.281-1.344 0-2.031 1.078-.687 1.062-.687 3.156t.687 3.172q.688 1.062 2.031 1.062.625 0 1.219-.265.594-.282 1.219-.86z"/><text x="116" y="685.92" fill="#D9B8FF" font-family="Helvetica" font-size="17" textLength="262">azure_machine_learning_quota</text><path d="M83 699.929h302" style="stroke:#000d19;stroke-width:.5"/><text x="93" y="721.924" fill="#D9B8FF" font-family="sans-serif" font-size="14" font-weight="bold" textLength="190">aml_workspace_location</text><text x="283" y="721.924" fill="#D9B8FF" font-family="sans-serif" font-size="14" textLength="48">: string</text><text x="93" y="748.221" fill="#D9B8FF" font-family="sans-serif" font-size="14" font-weight="bold" textLength="32">limit</text><text x="125" y="748.221" fill="#D9B8FF" font-family="sans-serif" font-size="14" textLength="44">: int64</text><text x="93" y="774.518" fill="#D9B8FF" font-family="sans-serif" font-size="14" font-weight="bold" textLength="30">unit</text><text x="123" y="774.518" fill="#D9B8FF" font-family="sans-serif" font-size="14" textLength="48">: string</text><rect width="214" height="100.383" x="7" y="438.76" fill="#3D176E" rx="2.5" ry="2.5" style="stroke:#000d19;stroke-width:.5"/><circle cx="28.3" cy="458.654" r="11" fill="#ADD1B2" style="stroke:#181818;stroke-width:1"/><path d="M31.269 464.295q-.578.297-1.219.438-.64.156-1.344.156-2.5 0-3.828-1.64-1.312-1.657-1.312-4.782t1.312-4.781q1.328-1.656 3.828-1.656.703 0 1.344.156.656.156 1.219.453v2.719q-.625-.579-1.219-.844-.594-.281-1.219-.281-1.343 0-2.031 1.078-.687 1.062-.687 3.156t.687 3.172q.688 1.062 2.031 1.062.625 0 1.219-.265.594-.281 1.219-.86z"/><text x="48.7" y="464.54" fill="#D9B8FF" font-family="Helvetica" font-size="17" textLength="158">microsoft_resource</text><path d="M8 478.549h212" style="stroke:#000d19;stroke-width:.5"/><text x="18" y="500.544" fill="#D9B8FF" font-family="sans-serif" font-size="14" font-weight="bold" textLength="35">etag</text><text x="53" y="500.544" fill="#D9B8FF" font-family="sans-serif" font-size="14" textLength="48">: string</text><text x="18" y="526.841" fill="#D9B8FF" font-family="sans-serif" font-size="14" font-weight="bold" textLength="144">provisioning_state</text><text x="162" y="526.841" fill="#D9B8FF" font-family="sans-serif" font-size="14" textLength="48">: string</text><rect width="198" height="39.789" x="256" y="469.05" fill="#3D176E" rx="2.5" ry="2.5" style="stroke:#000d19;stroke-width:.5"/><circle cx="271" cy="488.945" r="11" fill="#ADD1B2" style="stroke:#181818;stroke-width:1"/><path d="M273.969 494.585q-.578.297-1.219.438-.64.156-1.344.156-2.5 0-3.828-1.64-1.312-1.657-1.312-4.782t1.312-4.781q1.328-1.656 3.828-1.656.703 0 1.344.156.656.156 1.219.453v2.719q-.625-.579-1.219-.844-.594-.281-1.219-.281-1.344 0-2.031 1.078-.687 1.062-.687 3.156t.687 3.172q.688 1.062 2.031 1.062.625 0 1.219-.265.594-.281 1.219-.86z"/><text x="290" y="494.83" fill="#D9B8FF" font-family="Helvetica" font-size="17" textLength="156">phantom_resource</text><rect width="227" height="310.758" x="120.5" y="7" fill="#3D176E" rx="2.5" ry="2.5" style="stroke:#000d19;stroke-width:.5"/><circle cx="189.25" cy="26.895" r="11" fill="#ADD1B2" style="stroke:#181818;stroke-width:1"/><path d="M192.219 32.535q-.578.297-1.219.438-.64.156-1.344.156-2.5 0-3.828-1.64-1.312-1.657-1.312-4.782t1.312-4.781q1.328-1.656 3.828-1.656.703 0 1.344.156.656.156 1.219.453v2.719q-.625-.578-1.219-.844-.594-.281-1.219-.281-1.344 0-2.031 1.078-.687 1.062-.687 3.156t.687 3.172q.688 1.062 2.031 1.062.625 0 1.219-.265.594-.281 1.219-.86z"/><text x="214.75" y="32.78" fill="#D9B8FF" font-family="Helvetica" font-size="17" textLength="71">resource</text><path d="M121.5 46.789h225" style="stroke:#000d19;stroke-width:.5"/><text x="131.5" y="68.784" fill="#D9B8FF" font-family="sans-serif" font-size="14" font-weight="bold" textLength="29">age</text><text x="160.5" y="68.784" fill="#D9B8FF" font-family="sans-serif" font-size="14" textLength="66">: duration</text><text x="131.5" y="95.081" fill="#D9B8FF" font-family="sans-serif" font-size="14" font-weight="bold" textLength="43">atime</text><text x="174.5" y="95.081" fill="#D9B8FF" font-family="sans-serif" font-size="14" textLength="70">: datetime</text><text x="131.5" y="121.378" fill="#D9B8FF" font-family="sans-serif" font-size="14" font-weight="bold" textLength="43">ctime</text><text x="174.5" y="121.378" fill="#D9B8FF" font-family="sans-serif" font-size="14" textLength="70">: datetime</text><text x="131.5" y="147.675" fill="#D9B8FF" font-family="sans-serif" font-size="14" font-weight="bold" textLength="14">id</text><text x="145.5" y="147.675" fill="#D9B8FF" font-family="sans-serif" font-size="14" textLength="48">: string</text><text x="131.5" y="173.972" fill="#D9B8FF" font-family="sans-serif" font-size="14" font-weight="bold" textLength="33">kind</text><text x="164.5" y="173.972" fill="#D9B8FF" font-family="sans-serif" font-size="14" textLength="48">: string</text><text x="131.5" y="200.269" fill="#D9B8FF" font-family="sans-serif" font-size="14" font-weight="bold" textLength="90">last_access</text><text x="221.5" y="200.269" fill="#D9B8FF" font-family="sans-serif" font-size="14" textLength="66">: duration</text><text x="131.5" y="226.565" fill="#D9B8FF" font-family="sans-serif" font-size="14" font-weight="bold" textLength="90">last_update</text><text x="221.5" y="226.565" fill="#D9B8FF" font-family="sans-serif" font-size="14" textLength="66">: duration</text><text x="131.5" y="252.862" fill="#D9B8FF" font-family="sans-serif" font-size="14" font-weight="bold" textLength="48">mtime</text><text x="179.5" y="252.862" fill="#D9B8FF" font-family="sans-serif" font-size="14" textLength="70">: datetime</text><text x="131.5" y="279.159" fill="#D9B8FF" font-family="sans-serif" font-size="14" font-weight="bold" textLength="43">name</text><text x="174.5" y="279.159" fill="#D9B8FF" font-family="sans-serif" font-size="14" textLength="48">: string</text><text x="131.5" y="305.456" fill="#D9B8FF" font-family="sans-serif" font-size="14" font-weight="bold" textLength="34">tags</text><text x="165.5" y="305.456" fill="#D9B8FF" font-family="sans-serif" font-size="14" textLength="171">: dictionary[string, string]</text><path fill="none" d="M147.854 555.546c18.1 35.08 34.256 66.394 53.726 104.114M139.6 539.55l2.921 18.747 10.665-5.502zm197.192-14.602c-16.93 32.54-43.862 84.282-70.132 134.772m78.44-150.74-13.63 13.199 10.645 5.538zM170.567 334.943c-16.12 43.59-26.257 71.037-38.257 103.477m44.5-120.36-11.87 14.801 11.254 4.163z" style="stroke:#ffaf37;stroke-width:2"/><g fill="none"><path d="M297.948 334.926c22.28 59.76 38.782 104.024 49.972 134.034" style="stroke:#ffaf37;stroke-width:2"/><path d="m291.66 318.06.666 18.962 11.244-4.192z" style="stroke:#ffaf37;stroke-width:2"/></g></svg>
